X:49
T:Recovery,The. RH.049
R:Country Dance
S:Rev.R.Harrison's MS,c1815,Cumbria
O:England
A:Temple Sowerby,Cumbria
Z:vmp.Simon Wilson. Review PJH, 2008.
M:2/4
L:1/8
Q:1/4=100
K:D
Ad Ad|e/d/e/f/e2|agec|d/c/d/e/d2|\
Ad Ad|e/d/e/f/e2|agec|d2d2:|!
|:agec|d/c/d/e/ dA|GG G/F/G/A/|G2F2|\
agec|d/c/d/e/ dA|GG G/F/E/F/|D2D2:|!
|:ff/f/ ff|f3g|fedc|d/c/d/e/d2|\
ee/e/ ee|e3f|edcB|Aa a/g/e/c/:|
W:last bar illegible on photocopy
